X: 33
T:Boys of Ballycastle, The
M:C|
L:1/8
S:Kevin Burke
R:hornpipe
K:EMin
e>f|g>fe>d e>dB>d|e>de>g B2 B>A|G>FG>A B>AB>d|e2 A2 A2 g>a|
b>ag>f g>fe>d|e>de>g B2 B>A|G>FG>A B>dB>A|G2 E2 E2 :|
|:g>f|e>BB>A B>fg>f|f2 B2 B>fg>f|e>^de>f g>fg>a|b2 e2 e2 g>a|
b>ag>f g>fe>d|e>de>g B2 B>A|G>FG>A B>dB>A|G2 E2 E2 :|
